X:1
T:Trois Chansons de Bilitis
T:La Chevelure
T:2. La Chevelure
T:Claude Debussy
T:Pierre Louÿs
T:Trois Chansons de Bilitis
T:OpenScore (CC0)
T:OpenScore (CC0)
T:OpenScore (CC0)
T:OpenScore (CC0)
T:OpenScore (CC0)
C:Claude Debussy
Z:Pierre Louÿs
Z:OpenScore (CC0)
%%score 1 { ( 2 3 7 ) | ( 4 5 6 8 ) }
L:1/8
Q:1/4=70
M:6/4
K:Gb
V:1 treble nm="Voice"
V:2 treble nm="Piano"
V:3 treble 
V:7 treble 
V:4 treble 
V:5 treble 
V:6 treble 
V:8 treble 
V:1
"^Assez lent" z12 | z2 z2 F F _F4 z2 | %2
w: |Il m'a dit:|
"^Moins lent"[Q:1/4=76] E4 z2 z2"^Très expressif et passionnément concentré"!p! =G2 =F2 | %3
w: * « Cet-  te|
 _F2 z2 D F D6 | z4 z2 z =F =G G F F | D _F (3D D D F2 z2 z4 | %6
w: nuit, j'ai rê- vé.|J'a- vais ta che- ve-|* au- tour de mon  cou.|
 z2"^En           augmentent           peu           à           peu" _A A =G =B ^F2 F F =F F | %7
w: J'a- vais tes che- veux comme un col- lier|
 =A!<(! A (3_A A =c!<)! =G G!<(! (3_G G _B!<)! =c4- |[M:3/4] =c4 =c2 | %9
w: noir au- tour de ma nuque et sur ma poi- tri-|* ne.|
[M:6/4] z2!p! B B B B A A (3A A A G2 | z =E E E E E!<(! (3=D D D D3/2 D/!<)! D2 || %11
w: « Je les ca- res- sais, et c'é- taient les miens;|et nous é- tions li- és pour tou- jours ain- si,|
[K:C][M:9/4]"^En pressant"!mf! C D"^cresc." E ^F (3FG A B B/ !tenuto!B/ c/ c/ !tenuto!d/ !tenuto!e/!f! e2- (e4 E2) | %12
w: par la mê- me che- * ve- lu- re la bou- che sur la bou- * che,|
[M:6/4]"^a 1o Tempo" z!p! E E E E E =F2 F2 A2 | E3 E E E G4 _E2 | %14
w: ain- si que deux lau- riers n'ont sou-|vent qu'u- ne ra- ci- ne.|
"^En        pressant        peu        à        peu        et        en        augmentant" z6 z2!p! ^F2 (3z =E E | %15
w: « Et peu à|
 G2 z G G G c2 c c (3B B B | (3A A A c c/ c/ B/ B/ B/ B/ e4 ^d2 | %17
w: peu, il m'a sem- blé, tant nos mem- bres é-|\- taient con- fon- dus, que je de- ve- nais toi– mê- me,|
!f!!<(! =d d d d ^c c!<)! ^f3 ^F ^G G |!>(! B6!>)! =F2 z2 z2 || %19
w: ou que tu en- trais en moi com- me mon|son- ge. »|
[K:Gb]"^1o Tempo, plus lent"[Q:1/4=70] z12 | z2!p! F F (3F F F _F2- F z z2 | %21
w: |Quand il eut a- che- vé~ _|
 z2 E E =D D G G =F F _F A |[M:3/4] E2 =D2!pp![Q:1/4=65] D D | %23
w: il mit dou- ce- ment ses mains sur mes é-|pau- les, et il|
[M:6/4] (3_D D _F (3:2:2F2 F (3F F A c A z[Q:1/4=63] F F F | %24
w: me re- gar- da d'un re- gard si ten- dre, que je bais-|
 =F F =D[Q:1/4=55]!>(! D (3E E E!>)! _C2"^Très lent"[Q:1/4=60] z2 z2 | z12 | z12 |] %27
w: \- sai les yeux a- vec un fris- son.|||
V:2
!p! ([ef]2"_Très expressif" [=df]2 [_dg]2 [=c=d]2 [_cd]2 [_Be]2) | [AB]6 [AB]6 | %2
 z [B,AB]2 [B,AB]2 [B,AB]2 [B,DAB]2 [B,DAB]2 [B,DAB] | %3
 z [B,AB]2 [B,AB]2 [B,AB]2 [B,DAB]2 [B,DAB]2 [B,DAB] | %4
 z [B,AB]2 [B,AB]2 [B,AB]2 [B,DAB]2 [B,DAB]2 [B,DAB] | %5
!<(! z [B,AB]2 [B,AB]2 [B,AB]2!<)! [=B,=D=A=B]2 [B,DAB]2 [B,DAB] | %6
!mf! z [=B,=D=B]2 [B,DB]2 [B,DB]2 [B,=D=AB]2 [B,DAB]2 [B,DAB] | %7
 z!<(! [=C=D=c]2 [CDc]2 [CDc]2!<)! [C=EBc]2 [CEBc]2 [CEBc]- | %8
[M:3/4] [C=EBc] [=CEB=c]2 [CEBc]2 [CEBc] | %9
[M:6/4]!p! (3:2:2z (=c2 (3:2:2z c2 (3:2:2z =d2 (3:2:2z =e2 (3:2:2z e2 (3:2:2z ^f2) | %10
 (3:2:2z (a2 (3:2:2z a2 (3:2:2z b2 (3:2:2z =c'2 (3:2:2z c'2 (3:2:2z =d'2) || %11
[K:C][M:9/4]!mf! ([ee']2"^" [dd']2 [cc']2 [Bb]2 [Aa]2 [Gg]2)!f! ([^F^f]4 [Ee]2) | %12
[M:6/4]!p! ([E=FBe] [EFBe]2 [EFBe] [DE_Bd][DEBd]) ([_EA] [EA]2 [EA] [D=EBd][DEBd]) | %13
 ([E=F=Be] [EFBe]2 [EFBe] [DE_Bd][DEBd]) ([_EA] [EA]2 [EA]2 [E-A]) | %14
!pp! (_E2 C2 E2 [C=E]2 [D^F]2 [CE]2) | (_E2 C2 E2 [C=E]2 [EG]2 [D^F]2) | %16
!<(! [CE]2 [EG]2 [D^F]2 [CE]2 [EG]2 [^D^F]2!<)! | %17
!f!!<(! ([^F^f]2 [Aa]2 [^G^g]2)!<)! ([Ff]2 [Aa]2 [Gg]2) |!ff!!>(! [^GB^d^e^g]6 x2 x4!>)! || %19
[K:Gb]!p!"_Très expressif" (ec =dB _d__B =c_A _c__A _BG) | (A F2 F2 F) (A _F2 F2 F-) | %21
!pp! (_F2 E2 =D2 G2 =F2 _F2) |[M:3/4] (E2 =D4) |[M:6/4]!pp! [DAB]6 [CGA]6 | %24
!pp!!>(! (D2 [=C=D]2!>)! [_CE]2)!pp! z2!>(! [ef]2-!>)! !fermata![ef]2 | %25
!pp! z2!>(! [=df]2-!>)! !fermata![df]2!pp! z2!>(! [_dg]2-!>)! !fermata![dg]2- | %26
 [dg]4 z2 !fermata![B,DG_B]6 |] %27
V:3
 ec =dB _d__B =c_A _c__A _BG | (A F2 F2 F) (A _F2 F2 F-) | _F2 D2 F2 =F2 =G2 F2 | (_F2 D2 F2 =F6) | %4
 (_F2 D2 F2 =F2 =G2 F2) | (_F2 D2 F2 =F6) | (=A2 _A2 =G2) (^F4 =F2) | =A2 _A2 =G2!mf! _G6- | %8
[M:3/4] G6 |[M:6/4] (3x =c[=E^FB] (3x c[EFB] (3x =d[EFB] (3x =e[FBc] (3x e[FBc] (3x ^f[Bc=e] | %10
 (3x a[B=c=e] (3x a[Bce] (3x b[ce^f] (3x =c'[efb] (3x c'[efb] (3x =d'[efb] || %11
[K:C][M:9/4] [^fc'][fc'] [fc']"_cresc."[fc'] [ef][ef] [ce][ce] [ce][ce] [ce][ce] [Ac]"_in original edition, printed as crotchet" [Ac]2"^" [Ac] [^Fc][Fc] | %12
[M:6/4] x6[I:staff +1] [G,A,] [G,A,]2 [G,A,][I:staff -1] x2 | %13
 x6[I:staff +1] [G,A,] [G,A,]2 [G,A,]2 [G,A,] |[I:staff -1] z A2 A2 A2 A2 A2 A | %15
 z A2 A2 A2 A2 A2 A | z A2 A2 A2 A2 A2 B | %17
 [Bd][Bd] [d^f][df] [^ce][ce] [Bd][Bd] [df][df] [ce][ce] | %18
 [^d^e] [de]2 [de]2 [de]- [_e=f] [ef]2 [ef]2 !fermata![ef]- || %19
[K:Gb] [ef]2 [=df]2 [_dg]2 [=c=d]2 [_cd]2 [Be]2 | [AB]6 [AB]6 | [AB]6 [AB]6- |[M:3/4] [AB]6 | %23
[M:6/4][I:staff +1] B,6 A,6 | [G,B,]2 ^F,2 =F,2[I:staff -1] x2 ec- c2 | x2 =dB- B2 x2 _d__B- B2- | %26
 B4 x8 |] %27
V:4
!ped! ([EF]2 [=DF]2!ped-up!!ped! [_DG]2!ped-up!!ped![K:bass] [=C=D]2!ped-up!!ped! [_CD]2!ped-up!!ped!!ped-up! [_B,E]2) | %1
 [A,B,]6 [A,B,]6 |!p!!ped! G,,,6!ped! E,,6!ped-up! |!ped! _G,,6!ped! E,,6!ped-up! | %4
!ped! G,,6!ped-up!!ped! E,,6 |!<(!!ped! G,,6!<)!!ped! !arpeggio![=G,,,=G,,]6!ped-up! | %6
 x6 x =A,2 A,2 A, | x6 x B,2 B,2 B,- |[M:3/4] B, B,2 B,2!ped! B, | %9
[M:6/4]!ped! (=C4!ped-up!!ped! =D2)!ped-up!!ped! (=E4!ped-up!!ped! ^F2) | %10
!ped! ([^F,=C=E]6[K:treble]!ped-up!!ped! [^F,=E^FB]6)!ped-up! || %11
[K:C][M:9/4][K:bass]!ped! (D,,,/>D,,/(5:4:5A,,/4D,/4^F,/4A,/4"_ in original edition, top note of chord is F"C/4) [F,CE]4 [CE]6!ped-up!!ped! !arpeggio![D,,A,,F,]4!mf! [A,C]2 | %12
[M:6/4]!ped! ([G,,,G,,]4!ped! [C,,C,]2)!ped-up!!ped! ([F,,F,]4!ped-up!!ped! [C,,C,]2)!ped-up! | x6!ped-up! %13
!ped! ([G,,,G,,]4!ped! [C,,C,]2)!ped-up!!ped! [F,,F,]6!ped-up! | %14
!ped! [F,,,F,,]6!ped-up!!ped! [A,,,A,,]6!ped-up! | %15
!ped! [F,,,F,,]6!ped-up!!ped! [A,,,A,,]6!ped-up! | %16
!ped! [A,,,A,,]6!ped-up!!ped! [A,,,A,,]4!ped-up!!ped! [B,,,B,,]2!ped-up! | %17
!ped! [^G,,,^G,,]2 [B,,,B,,]2!ped-up!!ped! [^C,,^C,]2!ped! [G,,,G,,]2!ped-up! [B,,,B,,]2!ped! [C,,C,]2!ped-up! | %18
 [^E,,,^E,,]8[K:treble] x4 ||[K:Gb] (EC =DB, _D__B,[K:bass] =C_A, _C__A, _B,G,) | %20
 (A, F,2 F,2 F,) (A, _F,2 F,2 F,-) | (_F,2 E,2 =D,2 G,2 =F,2 _F,2) |[M:3/4] (E,2 =D,4) | %23
[M:6/4] [G,,D,]6 [_F,,C,]6 | [E,,B,,]2 [=D,,=A,,]2 [_D,,_A,,]2 z2[K:treble] [EF]2- !fermata![EF]2 | %25
 z2[K:treble] [=DF]2- !fermata![DF]2 z2[K:treble] [_DG]2- !fermata![DG]2- | [DG]4[K:bass] x8 |] %27
V:5
 EC =DB, _D__B,[K:bass] =C_A, _C__A, _B,G, | (A, F,2 F,2 F,) (A, _F,2 F,2 _F,-) | %2
 (_F,2 D,2 F,2 =F,2 =G,2 F,2) | (_F,2 D,2 F,2 =F,6) | (_F,2 D,2 F,2 =F,2 =G,2 F,2) | %5
 (_F,2 D,2 F,2 =F,6) | (=A,2 _A,2 =G,2) (^F,4 =F,2) | (=A,2 _A,2 =G,2) _G,6- |[M:3/4] G,6 | %9
[M:6/4] [^F,B,]6 [F,B,=C]6 | (A4 B2)[K:treble] (=c4 =d2) || %11
[K:C][M:9/4][K:bass] x6 ^F4 G2 [A,CE]4 x2 |[M:6/4] x12 | x12 | x12 | x12 | x12 | %17
 [^F,B,D]2 ([A,D^F]2 ([^G,^CE]2) ([F,B,D]2) [A,DF]2) [G,CE]2 | [^G,B,^D^E]6 x[K:treble] x5 || %19
[K:Gb] x2 [=DF]2 [_DG]2[K:bass] [=C=D]2 [_CD]2 [B,E]2 | [A,B,]6 [A,B,]6 | [A,B,]6 [A,B,]6- | %22
[M:3/4] [A,B,]6 |[M:6/4] x12 | x2 x2 x2 x2[K:treble] EC- C2 | %25
 x2[K:treble] =DB,- B,2 x2[K:treble] _D__B,- B,2- | B,4[K:bass] z2 !fermata![G,,,G,,]6 |] %27
V:6
 x6[K:bass] x6 | x12 | x12 | x12 | x12 | x12 | x12 | x12 |[M:3/4] x6 |[M:6/4] x12 | %10
 x6[K:treble] x6 ||[K:C][M:9/4][K:bass] x18 |[M:6/4] x12 | x12 | %14
 x [G,A,]2 [G,A,]2 [G,A,]2 [G,A,]2 [G,A,]2 [G,A,] | %15
 x [G,A,]2 [G,A,]2 [G,A,]2 [G,A,]2 [G,A,]2 [G,A,] | %16
 x [G,A,]2 [G,A,]2 [G,A,]2 [G,A,]2 [G,A,]2 [A,B,] | x12 | x7[K:treble] x5 || %19
[K:Gb] x4[I:staff -1] x2[I:staff +1][K:bass] x6 | x12 | x12 |[M:3/4] x6 |[M:6/4] x12 | %24
 x8[K:treble] x4 | x2[K:treble] x6[K:treble] x4 | x2[K:bass] x10 |] %27
V:7
 x12 | x12 | x12 | x12 | x12 | x12 | x12 | x12 |[M:3/4] x6 |[M:6/4] x12 | x12 ||[K:C][M:9/4] x18 | %12
[M:6/4] x12 | x12 | x12 | x12 | x11 A | x12 | x12 ||[K:Gb] x12 | x12 | x12 |[M:3/4] x6 | %23
[M:6/4] x12 | x12 | x12 | x12 |] %27
V:8
 x6[K:bass] x6 | x12 | x12 | x12 | x12 | x12 | x12 | x12 |[M:3/4] x6 |[M:6/4] x12 | %10
 x6[K:treble] x6 ||[K:C][M:9/4][K:bass] x18 |[M:6/4] x12 | x12 | x12 | x12 | x12 | x12 | %18
 [^D^E] [DE]2 [DE]2 ([D-E] [_E=F])[K:treble] [EF]2 [EF]2 !fermata![EF]- || %19
[K:Gb] [EF]2 x2 x8[K:bass] | x12 | x12 |[M:3/4] x6 |[M:6/4] x12 | x8[K:treble] x4 | %25
 x2[K:treble] x6[K:treble] x4 | z2[K:bass]!pp! !tenuto!D,4- !fermata!D,6 |] %27

